img/health-icon/masking.svg

<svg width="22" height="18" viewBox="0 0 22 18" fill="none" xmlns="http://www.w3.org/2000/svg">
<rect x="0.75" y="0.75" width="20.5" height="16.5" stroke="#52525A" stroke-width="1.5"/>
<path d="M6.94 13V11.32H3.39V10.34L6.89 5.55H8.06V10.34H9.09V11.32H8.06V13H6.94ZM4.26 10.77L4.07 10.34H6.94V6.49L7.26 6.59L4.26 10.77ZM10.4248 13V11.7H11.5748V13H10.4248ZM10.4248 8.89V7.59H11.5748V8.89H10.4248ZM15.4616 13.12C15.0616 13.12 14.685 13.0467 14.3316 12.9C13.985 12.7533 13.685 12.5467 13.4316 12.28C13.185 12.0133 13.0083 11.7 12.9016 11.34L13.9016 10.96C14.035 11.3133 14.2383 11.5867 14.5116 11.78C14.785 11.9733 15.1016 12.07 15.4616 12.07C15.755 12.07 16.0083 12.0133 16.2216 11.9C16.4416 11.7867 16.6116 11.6267 16.7316 11.42C16.8583 11.2133 16.9216 10.9633 16.9216 10.67C16.9216 10.3833 16.8583 10.1367 16.7316 9.93C16.6116 9.72333 16.4416 9.56667 16.2216 9.46C16.0083 9.35333 15.755 9.3 15.4616 9.3C15.3416 9.3 15.2183 9.31 15.0916 9.33C14.9716 9.35 14.865 9.37667 14.7716 9.41L14.5116 8.86L16.4716 6.55H13.3016V5.55H17.7916V6.5L15.8716 8.8L15.8416 8.42C16.2883 8.42667 16.6816 8.52667 17.0216 8.72C17.3616 8.90667 17.625 9.16667 17.8116 9.5C18.005 9.82667 18.1016 10.2067 18.1016 10.64C18.1016 11.1067 17.9883 11.53 17.7616 11.91C17.535 12.2833 17.2216 12.58 16.8216 12.8C16.4283 13.0133 15.975 13.12 15.4616 13.12Z" fill="#52525A"/>
</svg>

<svg width="22" height="18" fill="none" xmlns="http://www.w3.org/2000/svg"><path stroke="#52525A" stroke-width="1.5" d="M.75.75h20.5v16.5H.75z"/><path d="M6.94 13v-1.68H3.39v-.98l3.5-4.79h1.17v4.79h1.03v.98H8.06V13H6.94zm-2.68-2.23-.19-.43h2.87V6.49l.32.1-3 4.18zM10.425 13v-1.3h1.15V13h-1.15zm0-4.11v-1.3h1.15v1.3h-1.15zm5.037 4.23c-.4 0-.777-.073-1.13-.22a2.653 2.653 0 0 1-.9-.62 2.346 2.346 0 0 1-.53-.94l1-.38c.133.353.336.627.61.82.273.193.59.29.95.29.293 0 .546-.057.76-.17.22-.113.39-.273.51-.48.126-.207.19-.457.19-.75 0-.287-.064-.533-.19-.74a1.161 1.161 0 0 0-.51-.47 1.681 1.681 0 0 0-.76-.16c-.12 0-.244.01-.37.03a1.87 1.87 0 0 0-.32.08l-.26-.55 1.96-2.31h-3.17v-1h4.49v.95l-1.92 2.3-.03-.38c.446.007.84.107 1.18.3.34.187.603.447.79.78.193.327.29.707.29 1.14 0 .467-.114.89-.34 1.27-.227.373-.54.67-.94.89-.394.213-.847.32-1.36.32z" fill="#52525A"/></svg>
